X:1
T:Ecco l'eterna luce
T:Lodovico Agostini
T:Ecco l'eterna luce
T:Canzone Terza parte
C:Lodovico Agostini
%%score [ 1 2 3 4 ]
L:1/8
Q:1/4=96
M:4/4
K:C
V:1 treble nm="Soprano" snm="S"
V:2 alto1 nm="Alto" snm="A"
V:3 alto nm="Tenor" snm="T"
V:4 bass3 nm="Bass" snm="B"
V:1
 z8 |[K:Bb] d4 d2 d2 | e2 d2 c4 | c4 B4 | A3 A A2 B2 | c4 d4 | B2 c2 B2 c2 | d4 c4 | z2 =B4 B2 | %9
w: |Ec- co l'e-|ter- na lu-|ce, Ch'a|po- co a po- co a|po- co|va mon- tan- do'l|cie- lo,|Ec- co|
 c4 A2 d2 | c3 c e2 d2 | c4 c4 | z2 d2 c2 B2 | e4 d2 c2- | c4 A4 | z2 B2 B3 B | B2 B2 A4 | %17
w: co- me n'ad-|du- ce al- le- gro il|gior- no,|Et sfa- ce il|fred- do gie-|* lo,|E l'a- tro o-|scu- ro ve-|
 G2 G4 F2 | G4 G2 A2 | d4 c4 | z2 d2 e4 | d2 c2 d4 | c2 =B2 B2 c2- | c=B/A/ B2 c2 A2 | B3 B B2 B2 | %25
w: lo, D'o- gni in-|tor- no di-|scac- cia,|E tor-|na, E tor-|na qual prim' e-|* * * * ra, La|dol- ce _ pri-|
 EFGA B4- | B2 AG A4 | B4 z2 B2 | B2 B2 c4 | c2 d4 d2 | c2 B2 c4- | c2 B2 c4 | c4 z2 c2 | %33
w: ma- * * * *||ra, Piu|non si veg-|ga la- gri-|mo- sa fac-|* cia, Dun-|que ne|
 c2 A2 G4 | A4 z2 B2- | B2 e2 d4 | z2 c4 c2 | =B4 z2 c2- | c2 c2 d4 | e4 c2 B2 | c4 d4 | z2 B4 e2 | %42
w: ve- sta ne-|gra, Ch'ec-|* co'l sol,|Ch'ec- co'l|sol ec-|* co'l di|che ne ral-|le- gra,|Ch'ec- co'l|
 d4 z2 c2- | c2 c2 =B4 | z2 c4 c2 | d4 e4 | c2 B2 c4 | d8 |] %48
w: sol, Ch'ec-|* co'l sol|ec- co'l|di che|ne ral- le-|gra.|
V:2
 z8 |[K:Bb][K:treble] B4 B2 B2 | B2 B2 _A4 | G6 G2 | ^F3 F F2 G2 | A4 B2 F2 | G2 G4 A2 | B4 A4 | %8
w: |Ec- co l'e-|ter- na lu-|ce, Ch'a|po- co a po- co a|po- co va|mon- tan- do'l|cie- lo,|
 z2 G4 G2 | G4 G2 B2 | A3 A B2 B2 | G4 A4 | z2 B2 A2 G2 | G4 G2 G2- | G4 ^F4 | z2 G2 G3 G | %16
w: Ec- co|co- me n'ad-|du- ce al- le- gro il|gior- no,|Et sfa- ce il|fred- do gie-|* lo,|E l'a- tro o-|
 G2 F2 F4 | E2 D4 C2 | D4 =E2 F2- | F2 B4 A2 | z2 B2 B4 | B2 A2 B4 | A2 G4 F2 | G4 =E2 F2 | G6 G2 | %25
w: scu- ro ve-|lo, D'o- gni in-|tor- no di-|* scac- cia,|E tor-|na, E tor-|na qual prim'|e- ra, La|dol- ce|
 G4 F4 | F8 | F4 z2 F2 | G2 G2 _A4 | G2 B4 B2 | _A2 G2 EDEF | G2 G2 _A4 | G4 z2 _A2 | G2 F2 =E4 | %34
w: pri- ma-|ve-|ra, Piu|non si veg-|ga la- gri-|mo- sa fac- * * *|* cia, Dun-|que ne|ve- sta ne-|
 F4 z2 G2- | G2 B2 B4 | z2 G4 _A2 | G4 z2 A2- | A2 A2 B2 B2 | B4 A2 B2- | BA/G/ A2 B4 | z2 G4 B2 | %42
w: gra, Ch'ec-|* co'l sol,|Ch'ec- co'l|sol ec-|* co'l di che|ne ral- le-|* * * * gra,|Ch'ec- co'l|
 B4 z2 G2- | G2 _A2 G4 | z2 A4 A2 | B2 B2 B4 | A2 B3 A/G/ A2 | B8 |] %48
w: sol, Ch'ec-|* co'l sol|ec- co'l|di che ne|ral- le- * * *|gra.|
V:3
 z8 |[K:Bb][K:treble-8] f4 f2 f2 | g2 f2 f4 | e4 d2 d2- | d2 d2 d2 d2 | f4 f4 | e2 e2 d2 f2 | %7
w: |Ec- co l'e-|ter- na lu-|ce, Ch'a po-|* co a po- co a|po- co|va mon- tan- do'l|
 f4 f4 | z2 d4 d2 | e4 d2 f2 | f3 f g2 f2 | f2 =e2 f4 | z2 f2 f2 d2 | c4 d2 e2- | e4 d4 | %15
w: cie- lo,|Ec- co|co- me n'ad-|du- ce al- le- gro il|gior- * no,|Et sfa- ce il|fred- do gie-|* lo,|
 z2 d2 e3 e | e2 d2 c4 | c2 B4 c2 | =B4 c2 c2 | f4 f4 | z2 f2 g4 | f2 f2 f4 | f2 d4 c2 | d4 c2 c2 | %24
w: E l'a- tro o-|scu- ro ve-|lo, D'o- gni in-|tor- no di-|scac- cia,|E tor-|na, E tor-|na qual prim'|e- ra, La|
 e6 B2 | B3 c d2 cB | c8 | d4 z2 d2 | e2 d2 f4 | =e2 g4 g2 | e2 e2 c4 | d4 f4 | =e4 z2 c2 | %33
w: dol- ce|pri- ma- ve- * *||ra, Piu|non si veg-|ga la- gri-|mo- sa fac-|cia, Dun-|que ne|
 c2 c2 c4 | c4 z2 e2- | e2 g2 f4 | z2 =e4 f2 | d4 z2 f2- | f2 f2 f4 | g4 f2 d2 | f4 f4 | z2 e4 g2 | %42
w: ve- sta ne-|gra, Ch'ec-|* co'l sol,|Ch'ec- co'l|sol ec-|* co'l di|che ne ral-|le- gra,|Ch'ec- co'l|
 f4 z2 =e2- | e2 f2 d4 | z2 f4 f2 | f4 g4 | f2 d2 f4 | f8 |] %48
w: sol, Ch'ec-|* co'l sol|ec- co'l|di che|ne ral- le-|gra.|
V:4
 z8 |[K:Bb][K:bass] B,4 B,2 B,2 | E,2 B,,2 F,4 | C,4 G,4 | D,3 D, D,2 G,2 | F,4 B,,4 | %6
w: |Ec- co l'e-|ter- na lu-|ce, Ch'a|po- co a po- co a|po- co|
 E,2 C,2 G,2 F,2 | B,4 F,4 | z2 G,4 G,2 | C,4 D,2 B,,2 | F,3 F, E,2 B,2 | C4 F,4 | z2 B,2 F,2 G,2 | %13
w: va mon- tan- do'l|cie- lo,|Ec- co|co- me n'ad-|du- ce al- le- gro il|gior- no,|Et sfa- ce il|
 C,4 =B,,2 C,2- | C,4 D,4 | z2 G,2 E,3 E, | E,2 B,,2 F,4 | C,2 G,4 _A,2 | G,4 C,2 F,2 | B,,4 F,4 | %20
w: fred- do gie-|* lo,|E l'a- tro o-|scu- ro ve-|lo, D'o- gni in-|tor- no di-|scac- cia,|
 z2 B,,2 E,4 | B,,2 F,2 B,4 | F,2 G,4 _A,2 | G,4 C,2 F,2 | E,6 E,2 | E,4 B,,4 | F,8 | B,,4 z2 B,2 | %28
w: E tor-|na, E tor-|na qual prim'|e- ra, La|dol- ce|pri- ma-|ve-|ra, Piu|
 E,2 G,2 F,4 | C,2 G,4 G,2 | _A,2 E,2 A,4 | G,4 F,4 | C,4 F,4 | =E,2 F,2 C,4 | F,4 z2 E,2- | %35
w: non si veg-|ga la- gri-|mo- sa fac-|cia, Dun-|que ne|ve- sta ne-|gra, Ch'ec-|
 E,2 E,2 B,4 | z2 C4 F,2 | G,4 z2 F,2- | F,2 F,2 B,4 | E,4 F,2 G,2 | F,4 B,,4 | z2 E,4 E,2 | %42
w: * co'l sol,|Ch'ec- co'l|sol ec-|* co'l di|che ne ral-|le- gra,|Ch'ec- co'l|
 B,4 z2 C2- | C2 F,2 G,4 | z2 F,4 F,2 | B,4 E,4 | F,2 G,2 F,4 | B,,8 |] %48
w: sol, Ch'ec-|* co'l sol|ec- co'l|di che|ne ral- le-|gra.|

